archdroid-icon-theme/Archdroid-Pink/places/scalable/mail-outbox.svg

<?xml version="1.0" encoding="UTF-8" standalone="no"?>
<svg
   xmlns:dc="http://purl.org/dc/elements/1.1/"
   xmlns:cc="http://creativecommons.org/ns#"
   xmlns:rdf="http://www.w3.org/1999/02/22-rdf-syntax-ns#"
   xmlns:svg="http://www.w3.org/2000/svg"
   xmlns="http://www.w3.org/2000/svg"
   xmlns:sodipodi="http://sodipodi.sourceforge.net/DTD/sodipodi-0.dtd"
   xmlns:inkscape="http://www.inkscape.org/namespaces/inkscape"
   fill="#E91E63"
   width="48"
   height="48"
   viewBox="0 0 48 48"
   id="svg2"
   version="1.1"
   inkscape:version="0.91 r13725"
   sodipodi:docname="mail-outbox.svg">
  <metadata
     id="metadata10">
    <rdf:RDF>
      <cc:Work
         rdf:about="">
        <dc:format>image/svg+xml</dc:format>
        <dc:type
           rdf:resource="http://purl.org/dc/dcmitype/StillImage" />
      </cc:Work>
    </rdf:RDF>
  </metadata>
  <defs
     id="defs8" />
  <sodipodi:namedview
     pagecolor="#ffffff"
     bordercolor="#666666"
     borderopacity="1"
     objecttolerance="10"
     gridtolerance="10"
     guidetolerance="10"
     inkscape:pageopacity="0"
     inkscape:pageshadow="2"
     inkscape:window-width="1366"
     inkscape:window-height="713"
     id="namedview6"
     showgrid="false"
     inkscape:zoom="11.02408854166667"
     inkscape:cx="23.99999999999999"
     inkscape:cy="23.99999999999999"
     inkscape:window-x="0"
     inkscape:window-y="30"
     inkscape:window-maximized="1"
     inkscape:current-layer="svg2" />
  <path
     id="path4"
     d="m 32,20 -4,0 0,6 -8,0 0,-6 -4,0 8,-8 8,8 z M 9.98046875,6 C 7.770468750000001,6 6.019531250000001,7.790000000000001 6.01953125,10 L 6,38 c 0,2.21 1.77046875,4 3.98046875,4 L 38,42 c 2.21,0 4,-1.79 4,-4 L 42,10 C 42,7.79 40.21,6.000000000000001 38,6 L 9.98046875,6 Z m 0,4 L 38,10 l 0,20 -8,0 c 0,3.31 -2.69,6 -6,6 -3.31,0 -6,-2.69 -6,-6 l -8.01953125,0 0,-20 z" />
</svg>

<svg xmlns="http://www.w3.org/2000/svg" fill="#E91E63" viewBox="0 0 48 48"><path d="m32 20h-4v6h-8v-6h-4l8-8 8 8m-22.02-14c-2.21 0-3.961 1.79-3.961 4l-.02 28c0 2.21 1.77 4 3.98 4h28.02c2.21 0 4-1.79 4-4v-28c0-2.21-1.79-4-4-4h-28.02m0 4h28.02v20h-8c0 3.31-2.69 6-6 6-3.31 0-6-2.69-6-6h-8.02v-20z"/></svg>
